images/6605072.svg

<?xml version="1.0" encoding="UTF-8"?>
<svg xmlns="http://www.w3.org/2000/svg" xmlns:xlink="http://www.w3.org/1999/xlink" width="300pt" height="300pt" viewBox="0 0 300 300" version="1.1">
<defs>
<g>
<symbol overflow="visible" id="glyph0-0">
<path style="stroke:none;" d="M 0.453125 1.59375 L 0.453125 -6.34375 L 4.953125 -6.34375 L 4.953125 1.59375 Z M 0.953125 1.09375 L 4.453125 1.09375 L 4.453125 -5.84375 L 0.953125 -5.84375 Z M 0.953125 1.09375 "/>
</symbol>
<symbol overflow="visible" id="glyph0-1">
<path style="stroke:none;" d="M 0.890625 -6.5625 L 2.078125 -6.5625 L 4.984375 -1.078125 L 4.984375 -6.5625 L 5.84375 -6.5625 L 5.84375 0 L 4.65625 0 L 1.75 -5.484375 L 1.75 0 L 0.890625 0 Z M 0.890625 -6.5625 "/>
</symbol>
<symbol overflow="visible" id="glyph0-2">
<path style="stroke:none;" d="M 0.890625 -6.5625 L 1.765625 -6.5625 L 1.765625 -3.875 L 5 -3.875 L 5 -6.5625 L 5.890625 -6.5625 L 5.890625 0 L 5 0 L 5 -3.125 L 1.765625 -3.125 L 1.765625 0 L 0.890625 0 Z M 0.890625 -6.5625 "/>
</symbol>
<symbol overflow="visible" id="glyph0-3">
<path style="stroke:none;" d="M 0.890625 -6.5625 L 4.65625 -6.5625 L 4.65625 -5.8125 L 1.765625 -5.8125 L 1.765625 -3.875 L 4.375 -3.875 L 4.375 -3.140625 L 1.765625 -3.140625 L 1.765625 0 L 0.890625 0 Z M 0.890625 -6.5625 "/>
</symbol>
</g>
</defs>
<g id="surface33785">
<rect x="0" y="0" width="300" height="300" style="fill:rgb(100%,100%,100%);fill-opacity:1;stroke:none;"/>
<path style="fill:none;stroke-width:1.2;stroke-linecap:butt;stroke-linejoin:miter;stroke:rgb(0%,0%,0%);stroke-opacity:1;stroke-miterlimit:10;" d="M 264.75 166.359375 L 245.328125 158.109375 "/>
<path style="fill:none;stroke-width:1.2;stroke-linecap:butt;stroke-linejoin:miter;stroke:rgb(0%,0%,0%);stroke-opacity:1;stroke-miterlimit:10;" d="M 245.328125 158.109375 L 228.472656 170.800781 "/>
<path style="fill:none;stroke-width:1.2;stroke-linecap:butt;stroke-linejoin:miter;stroke:rgb(0%,0%,0%);stroke-opacity:1;stroke-miterlimit:10;" d="M 228.472656 170.800781 L 218.761719 166.671875 "/>
<path style="fill:none;stroke-width:1.2;stroke-linecap:butt;stroke-linejoin:miter;stroke:rgb(0%,0%,100%);stroke-opacity:1;stroke-miterlimit:10;" d="M 218.761719 166.671875 L 209.054688 162.546875 "/>
<path style="fill:none;stroke-width:1.2;stroke-linecap:butt;stroke-linejoin:miter;stroke:rgb(0%,0%,100%);stroke-opacity:1;stroke-miterlimit:10;" d="M 209.054688 162.546875 L 200.007812 167.976562 "/>
<path style="fill:none;stroke-width:1.2;stroke-linecap:butt;stroke-linejoin:miter;stroke:rgb(0%,0%,0%);stroke-opacity:1;stroke-miterlimit:10;" d="M 200.007812 167.976562 L 190.960938 173.40625 "/>
<path style="fill:none;stroke-width:1.2;stroke-linecap:butt;stroke-linejoin:miter;stroke:rgb(0%,0%,0%);stroke-opacity:1;stroke-miterlimit:10;" d="M 204.316406 141.984375 L 206.683594 152.265625 "/>
<path style="fill:none;stroke-width:1.2;stroke-linecap:butt;stroke-linejoin:miter;stroke:rgb(0%,0%,100%);stroke-opacity:1;stroke-miterlimit:10;" d="M 206.683594 152.265625 L 209.054688 162.546875 "/>
<path style=" stroke:none;fill-rule:nonzero;fill:rgb(100%,100%,100%);fill-opacity:1;" d="M 206.054688 157.046875 L 213.054688 157.046875 L 213.054688 168.046875 L 206.054688 168.046875 Z M 206.054688 157.046875 "/>
<g style="fill:rgb(0%,0%,100%);fill-opacity:1;">
  <use xlink:href="#glyph0-1" x="206.054688" y="165.709961"/>
</g>
<path style="fill:none;stroke-width:1.2;stroke-linecap:butt;stroke-linejoin:miter;stroke:rgb(0%,0%,0%);stroke-opacity:1;stroke-miterlimit:10;" d="M 190.960938 173.40625 L 175.042969 159.558594 "/>
<path style="fill:none;stroke-width:1.2;stroke-linecap:butt;stroke-linejoin:miter;stroke:rgb(0%,0%,0%);stroke-opacity:1;stroke-miterlimit:10;" d="M 186.109375 175.769531 L 173.375 164.6875 "/>
<path style="fill:none;stroke-width:1.2;stroke-linecap:butt;stroke-linejoin:miter;stroke:rgb(0%,0%,100%);stroke-opacity:1;stroke-miterlimit:10;" d="M 186.925781 194.117188 L 188.945312 183.761719 "/>
<path style="fill:none;stroke-width:1.2;stroke-linecap:butt;stroke-linejoin:miter;stroke:rgb(0%,0%,0%);stroke-opacity:1;stroke-miterlimit:10;" d="M 188.945312 183.761719 L 190.960938 173.40625 "/>
<path style="fill:none;stroke-width:1.2;stroke-linecap:butt;stroke-linejoin:miter;stroke:rgb(0%,0%,0%);stroke-opacity:1;stroke-miterlimit:10;" d="M 175.042969 159.558594 L 155.089844 166.417969 "/>
<path style="fill:none;stroke-width:1.2;stroke-linecap:butt;stroke-linejoin:miter;stroke:rgb(0%,0%,0%);stroke-opacity:1;stroke-miterlimit:10;" d="M 175.042969 159.558594 L 179.167969 149.847656 "/>
<path style="fill:none;stroke-width:1.2;stroke-linecap:butt;stroke-linejoin:miter;stroke:rgb(0%,0%,100%);stroke-opacity:1;stroke-miterlimit:10;" d="M 179.167969 149.847656 L 183.296875 140.136719 "/>
<path style="fill:none;stroke-width:1.2;stroke-linecap:butt;stroke-linejoin:miter;stroke:rgb(0%,0%,0%);stroke-opacity:1;stroke-miterlimit:10;" d="M 155.089844 166.417969 L 153.070312 176.773438 "/>
<path style="fill:none;stroke-width:1.2;stroke-linecap:butt;stroke-linejoin:miter;stroke:rgb(0%,0%,100%);stroke-opacity:1;stroke-miterlimit:10;" d="M 153.070312 176.773438 L 151.054688 187.128906 "/>
<path style="fill:none;stroke-width:1.2;stroke-linecap:butt;stroke-linejoin:miter;stroke:rgb(0%,0%,0%);stroke-opacity:1;stroke-miterlimit:10;" d="M 159.558594 169.441406 L 157.945312 177.722656 "/>
<path style="fill:none;stroke-width:1.2;stroke-linecap:butt;stroke-linejoin:miter;stroke:rgb(0%,0%,100%);stroke-opacity:1;stroke-miterlimit:10;" d="M 157.945312 177.722656 L 156.332031 186.007812 "/>
<path style="fill:none;stroke-width:1.2;stroke-linecap:butt;stroke-linejoin:miter;stroke:rgb(0%,0%,0%);stroke-opacity:1;stroke-miterlimit:10;" d="M 155.089844 166.417969 L 147.128906 159.496094 "/>
<path style="fill:none;stroke-width:1.2;stroke-linecap:butt;stroke-linejoin:miter;stroke:rgb(0%,0%,100%);stroke-opacity:1;stroke-miterlimit:10;" d="M 147.128906 159.496094 L 139.167969 152.570312 "/>
<path style="fill:none;stroke-width:1.2;stroke-linecap:butt;stroke-linejoin:miter;stroke:rgb(0%,0%,100%);stroke-opacity:1;stroke-miterlimit:10;" d="M 151.054688 187.128906 L 159.015625 194.054688 "/>
<path style="fill:none;stroke-width:1.2;stroke-linecap:butt;stroke-linejoin:miter;stroke:rgb(0%,0%,0%);stroke-opacity:1;stroke-miterlimit:10;" d="M 159.015625 194.054688 L 166.972656 200.980469 "/>
<path style=" stroke:none;fill-rule:nonzero;fill:rgb(100%,100%,100%);fill-opacity:1;" d="M 148.054688 181.628906 L 155.054688 181.628906 L 155.054688 192.628906 L 148.054688 192.628906 Z M 148.054688 181.628906 "/>
<g style="fill:rgb(0%,0%,100%);fill-opacity:1;">
  <use xlink:href="#glyph0-1" x="148.054688" y="190.291992"/>
</g>
<path style="fill:none;stroke-width:1.2;stroke-linecap:butt;stroke-linejoin:miter;stroke:rgb(0%,0%,0%);stroke-opacity:1;stroke-miterlimit:10;" d="M 166.972656 200.980469 L 176.949219 197.550781 "/>
<path style="fill:none;stroke-width:1.2;stroke-linecap:butt;stroke-linejoin:miter;stroke:rgb(0%,0%,100%);stroke-opacity:1;stroke-miterlimit:10;" d="M 176.949219 197.550781 L 186.925781 194.117188 "/>
<path style="fill:none;stroke-width:1.2;stroke-linecap:butt;stroke-linejoin:miter;stroke:rgb(0%,0%,0%);stroke-opacity:1;stroke-miterlimit:10;" d="M 167.355469 195.597656 L 175.335938 192.855469 "/>
<path style="fill:none;stroke-width:1.2;stroke-linecap:butt;stroke-linejoin:miter;stroke:rgb(0%,0%,100%);stroke-opacity:1;stroke-miterlimit:10;" d="M 175.335938 192.855469 L 183.316406 190.109375 "/>
<path style="fill:none;stroke-width:1.2;stroke-linecap:butt;stroke-linejoin:miter;stroke:rgb(0%,0%,0%);stroke-opacity:1;stroke-miterlimit:10;" d="M 166.972656 200.980469 L 162.9375 221.691406 "/>
<path style=" stroke:none;fill-rule:nonzero;fill:rgb(100%,100%,100%);fill-opacity:1;" d="M 183.925781 188.617188 L 190.925781 188.617188 L 190.925781 199.617188 L 183.925781 199.617188 Z M 183.925781 188.617188 "/>
<g style="fill:rgb(0%,0%,100%);fill-opacity:1;">
  <use xlink:href="#glyph0-1" x="183.925781" y="197.280273"/>
</g>
<path style="fill:none;stroke-width:1.2;stroke-linecap:butt;stroke-linejoin:miter;stroke:rgb(0%,0%,100%);stroke-opacity:1;stroke-miterlimit:10;" d="M 139.167969 152.570312 L 129.191406 156 "/>
<path style="fill:none;stroke-width:1.2;stroke-linecap:butt;stroke-linejoin:miter;stroke:rgb(0%,0%,0%);stroke-opacity:1;stroke-miterlimit:10;" d="M 129.191406 156 L 119.214844 159.429688 "/>
<path style=" stroke:none;fill-rule:nonzero;fill:rgb(100%,100%,100%);fill-opacity:1;" d="M 132.167969 147.070312 L 146.167969 147.070312 L 146.167969 158.070312 L 132.167969 158.070312 Z M 132.167969 147.070312 "/>
<g style="fill:rgb(0%,0%,100%);fill-opacity:1;">
  <use xlink:href="#glyph0-1" x="132.167969" y="155.733398"/>
  <use xlink:href="#glyph0-2" x="139.145508" y="155.733398"/>
</g>
<path style="fill:none;stroke-width:1.2;stroke-linecap:butt;stroke-linejoin:miter;stroke:rgb(0%,0%,0%);stroke-opacity:1;stroke-miterlimit:10;" d="M 119.214844 159.429688 L 113.039062 179.609375 "/>
<path style="fill:none;stroke-width:1.2;stroke-linecap:butt;stroke-linejoin:miter;stroke:rgb(0%,0%,0%);stroke-opacity:1;stroke-miterlimit:10;" d="M 101.9375 147.320312 L 119.214844 159.429688 "/>
<path style="fill:none;stroke-width:1.2;stroke-linecap:butt;stroke-linejoin:miter;stroke:rgb(0%,0%,0%);stroke-opacity:1;stroke-miterlimit:10;" d="M 113.039062 179.609375 L 91.941406 179.96875 "/>
<path style="fill:none;stroke-width:1.2;stroke-linecap:butt;stroke-linejoin:miter;stroke:rgb(0%,0%,0%);stroke-opacity:1;stroke-miterlimit:10;" d="M 91.941406 179.96875 L 88.511719 169.992188 "/>
<path style="fill:none;stroke-width:1.2;stroke-linecap:butt;stroke-linejoin:miter;stroke:rgb(0%,0%,100%);stroke-opacity:1;stroke-miterlimit:10;" d="M 88.511719 169.992188 L 85.078125 160.011719 "/>
<path style="fill:none;stroke-width:1.2;stroke-linecap:butt;stroke-linejoin:miter;stroke:rgb(0%,0%,100%);stroke-opacity:1;stroke-miterlimit:10;" d="M 85.078125 160.011719 L 93.507812 153.667969 "/>
<path style="fill:none;stroke-width:1.2;stroke-linecap:butt;stroke-linejoin:miter;stroke:rgb(0%,0%,0%);stroke-opacity:1;stroke-miterlimit:10;" d="M 93.507812 153.667969 L 101.9375 147.320312 "/>
<path style="fill:none;stroke-width:1.2;stroke-linecap:butt;stroke-linejoin:miter;stroke:rgb(0%,0%,100%);stroke-opacity:1;stroke-miterlimit:10;" d="M 85.078125 160.011719 L 74.992188 156.925781 "/>
<path style="fill:none;stroke-width:1.2;stroke-linecap:butt;stroke-linejoin:miter;stroke:rgb(0%,0%,0%);stroke-opacity:1;stroke-miterlimit:10;" d="M 74.992188 156.925781 L 64.902344 153.835938 "/>
<path style=" stroke:none;fill-rule:nonzero;fill:rgb(100%,100%,100%);fill-opacity:1;" d="M 82.078125 154.511719 L 89.078125 154.511719 L 89.078125 165.511719 L 82.078125 165.511719 Z M 82.078125 154.511719 "/>
<g style="fill:rgb(0%,0%,100%);fill-opacity:1;">
  <use xlink:href="#glyph0-1" x="82.078125" y="163.174805"/>
</g>
<path style="fill:none;stroke-width:1.2;stroke-linecap:butt;stroke-linejoin:miter;stroke:rgb(0%,0%,0%);stroke-opacity:1;stroke-miterlimit:10;" d="M 64.902344 153.835938 L 60.164062 133.273438 "/>
<path style="fill:none;stroke-width:1.2;stroke-linecap:butt;stroke-linejoin:miter;stroke:rgb(0%,0%,0%);stroke-opacity:1;stroke-miterlimit:10;" d="M 60.164062 133.273438 L 75.601562 118.890625 "/>
<path style="fill:none;stroke-width:1.2;stroke-linecap:butt;stroke-linejoin:miter;stroke:rgb(0%,0%,0%);stroke-opacity:1;stroke-miterlimit:10;" d="M 58.324219 128.203125 L 70.675781 116.695312 "/>
<path style="fill:none;stroke-width:1.2;stroke-linecap:butt;stroke-linejoin:miter;stroke:rgb(0%,0%,0%);stroke-opacity:1;stroke-miterlimit:10;" d="M 39.988281 127.097656 L 60.164062 133.273438 "/>
<path style="fill:none;stroke-width:1.2;stroke-linecap:butt;stroke-linejoin:miter;stroke:rgb(0%,0%,0%);stroke-opacity:1;stroke-miterlimit:10;" d="M 75.601562 118.890625 L 70.863281 98.328125 "/>
<path style="fill:none;stroke-width:1.2;stroke-linecap:butt;stroke-linejoin:miter;stroke:rgb(0%,0%,0%);stroke-opacity:1;stroke-miterlimit:10;" d="M 70.863281 98.328125 L 50.6875 92.152344 "/>
<path style="fill:none;stroke-width:1.2;stroke-linecap:butt;stroke-linejoin:miter;stroke:rgb(0%,0%,0%);stroke-opacity:1;stroke-miterlimit:10;" d="M 67.394531 102.457031 L 51.253906 97.515625 "/>
<path style="fill:none;stroke-width:1.2;stroke-linecap:butt;stroke-linejoin:miter;stroke:rgb(0%,0%,0%);stroke-opacity:1;stroke-miterlimit:10;" d="M 50.6875 92.152344 L 35.25 106.535156 "/>
<path style="fill:none;stroke-width:1.2;stroke-linecap:butt;stroke-linejoin:miter;stroke:rgb(0%,0%,0%);stroke-opacity:1;stroke-miterlimit:10;" d="M 35.25 106.535156 L 39.988281 127.097656 "/>
<path style="fill:none;stroke-width:1.2;stroke-linecap:butt;stroke-linejoin:miter;stroke:rgb(0%,0%,0%);stroke-opacity:1;stroke-miterlimit:10;" d="M 40.5625 107.476562 L 44.351562 123.925781 "/>
<path style="fill:none;stroke-width:1.2;stroke-linecap:butt;stroke-linejoin:miter;stroke:rgb(0%,0%,100%);stroke-opacity:1;stroke-miterlimit:10;" d="M 183.296875 140.136719 L 193.804688 141.0625 "/>
<path style="fill:none;stroke-width:1.2;stroke-linecap:butt;stroke-linejoin:miter;stroke:rgb(0%,0%,0%);stroke-opacity:1;stroke-miterlimit:10;" d="M 193.804688 141.0625 L 204.316406 141.984375 "/>
<path style="fill:none;stroke-width:1.2;stroke-linecap:butt;stroke-linejoin:miter;stroke:rgb(0%,0%,100%);stroke-opacity:1;stroke-miterlimit:10;" d="M 184.960938 145.269531 L 193.371094 146.007812 "/>
<path style="fill:none;stroke-width:1.2;stroke-linecap:butt;stroke-linejoin:miter;stroke:rgb(0%,0%,0%);stroke-opacity:1;stroke-miterlimit:10;" d="M 193.371094 146.007812 L 201.777344 146.746094 "/>
<path style=" stroke:none;fill-rule:nonzero;fill:rgb(100%,100%,100%);fill-opacity:1;" d="M 180.296875 134.636719 L 187.296875 134.636719 L 187.296875 145.636719 L 180.296875 145.636719 Z M 180.296875 134.636719 "/>
<g style="fill:rgb(0%,0%,100%);fill-opacity:1;">
  <use xlink:href="#glyph0-1" x="180.296875" y="143.299805"/>
</g>
<path style="fill:none;stroke-width:1.2;stroke-linecap:butt;stroke-linejoin:miter;stroke:rgb(0%,0%,0%);stroke-opacity:1;stroke-miterlimit:10;" d="M 204.316406 141.984375 L 218.164062 126.066406 "/>
<path style="fill:none;stroke-width:1.2;stroke-linecap:butt;stroke-linejoin:miter;stroke:rgb(0%,0%,0%);stroke-opacity:1;stroke-miterlimit:10;" d="M 218.164062 126.066406 L 238.875 130.101562 "/>
<path style="fill:none;stroke-width:1.2;stroke-linecap:butt;stroke-linejoin:miter;stroke:rgb(0%,0%,0%);stroke-opacity:1;stroke-miterlimit:10;" d="M 221.183594 121.597656 L 237.753906 124.824219 "/>
<path style="fill:none;stroke-width:1.2;stroke-linecap:butt;stroke-linejoin:miter;stroke:rgb(0%,0%,0%);stroke-opacity:1;stroke-miterlimit:10;" d="M 211.304688 106.113281 L 218.164062 126.066406 "/>
<path style="fill:none;stroke-width:1.2;stroke-linecap:butt;stroke-linejoin:miter;stroke:rgb(0%,0%,0%);stroke-opacity:1;stroke-miterlimit:10;" d="M 238.875 130.101562 L 252.726562 114.179688 "/>
<path style="fill:none;stroke-width:1.2;stroke-linecap:butt;stroke-linejoin:miter;stroke:rgb(0%,0%,0%);stroke-opacity:1;stroke-miterlimit:10;" d="M 252.726562 114.179688 L 245.863281 94.226562 "/>
<path style="fill:none;stroke-width:1.2;stroke-linecap:butt;stroke-linejoin:miter;stroke:rgb(0%,0%,0%);stroke-opacity:1;stroke-miterlimit:10;" d="M 247.34375 113.800781 L 241.855469 97.835938 "/>
<path style="fill:none;stroke-width:1.2;stroke-linecap:butt;stroke-linejoin:miter;stroke:rgb(0%,0%,0%);stroke-opacity:1;stroke-miterlimit:10;" d="M 245.863281 94.226562 L 225.152344 90.191406 "/>
<path style="fill:none;stroke-width:1.2;stroke-linecap:butt;stroke-linejoin:miter;stroke:rgb(0%,0%,0%);stroke-opacity:1;stroke-miterlimit:10;" d="M 245.863281 94.226562 L 252.789062 86.269531 "/>
<path style="fill:none;stroke-width:1.2;stroke-linecap:butt;stroke-linejoin:miter;stroke:rgb(20%,80%,80%);stroke-opacity:1;stroke-miterlimit:10;" d="M 252.789062 86.269531 L 259.714844 78.308594 "/>
<path style="fill:none;stroke-width:1.2;stroke-linecap:butt;stroke-linejoin:miter;stroke:rgb(0%,0%,0%);stroke-opacity:1;stroke-miterlimit:10;" d="M 225.152344 90.191406 L 211.304688 106.113281 "/>
<path style="fill:none;stroke-width:1.2;stroke-linecap:butt;stroke-linejoin:miter;stroke:rgb(0%,0%,0%);stroke-opacity:1;stroke-miterlimit:10;" d="M 227.511719 95.042969 L 216.433594 107.777344 "/>
<path style=" stroke:none;fill-rule:nonzero;fill:rgb(100%,100%,100%);fill-opacity:1;" d="M 256.714844 72.808594 L 262.714844 72.808594 L 262.714844 83.808594 L 256.714844 83.808594 Z M 256.714844 72.808594 "/>
<g style="fill:rgb(20%,80%,80%);fill-opacity:1;">
  <use xlink:href="#glyph0-3" x="256.714844" y="81.47168"/>
</g>
</g>
</svg>

<svg xmlns="http://www.w3.org/2000/svg" xmlns:xlink="http://www.w3.org/1999/xlink" width="300pt" height="300pt" viewBox="0 0 300 300"><defs><symbol overflow="visible"><path d="M.453 1.594v-7.938h4.5v7.938zm.5-.5h3.5v-6.938h-3.5zm0 0"/></symbol><symbol overflow="visible" id="a"><path d="M.89-6.563H2.08l2.906 5.485v-5.484h.86V0H4.656L1.75-5.484V0H.89zm0 0"/></symbol><symbol overflow="visible" id="b"><path d="M.89-6.563h.876v2.688H5v-2.688h.89V0H5v-3.125H1.766V0H.89zm0 0"/></symbol><symbol overflow="visible" id="c"><path d="M.89-6.563h3.766v.75h-2.89v1.938h2.61v.734h-2.61V0H.89zm0 0"/></symbol></defs><g><path fill="#fff" d="M0 0h300v300H0z"/><path d="M264.75 166.36l-19.422-8.25M245.328 158.11l-16.855 12.69M228.473 170.8l-9.71-4.128" stroke-width="1.2" stroke="#000" stroke-miterlimit="10" fill="none"/><path d="M218.762 166.672l-9.707-4.125M209.055 162.547l-9.047 5.43" stroke-width="1.2" stroke="#00f" stroke-miterlimit="10" fill="none"/><path d="M200.008 167.977l-9.047 5.43M204.316 141.984l2.368 10.282" stroke-width="1.2" stroke="#000" stroke-miterlimit="10" fill="none"/><path d="M206.684 152.266l2.37 10.28" stroke-width="1.2" stroke="#00f" stroke-miterlimit="10" fill="none"/><path d="M206.055 157.047h7v11h-7zm0 0" fill="#fff"/><use xlink:href="#a" x="206.055" y="165.71" fill="#00f"/><path d="M190.96 173.406l-15.917-13.847M186.11 175.77l-12.735-11.083" stroke-width="1.2" stroke="#000" stroke-miterlimit="10" fill="none"/><path d="M186.926 194.117l2.02-10.355" stroke-width="1.2" stroke="#00f" stroke-miterlimit="10" fill="none"/><path d="M188.945 183.762l2.016-10.356M175.043 159.56l-19.953 6.858M175.043 159.56l4.125-9.712" stroke-width="1.2" stroke="#000" stroke-miterlimit="10" fill="none"/><path d="M179.168 149.848l4.13-9.71" stroke-width="1.2" stroke="#00f" stroke-miterlimit="10" fill="none"/><path d="M155.09 166.418l-2.02 10.355" stroke-width="1.2" stroke="#000" stroke-miterlimit="10" fill="none"/><path d="M153.07 176.773l-2.015 10.356" stroke-width="1.2" stroke="#00f" stroke-miterlimit="10" fill="none"/><path d="M159.56 169.44l-1.615 8.283" stroke-width="1.2" stroke="#000" stroke-miterlimit="10" fill="none"/><path d="M157.945 177.723l-1.613 8.285" stroke-width="1.2" stroke="#00f" stroke-miterlimit="10" fill="none"/><path d="M155.09 166.418l-7.96-6.922" stroke-width="1.2" stroke="#000" stroke-miterlimit="10" fill="none"/><path d="M147.13 159.496l-7.962-6.926M151.055 187.13l7.96 6.925" stroke-width="1.2" stroke="#00f" stroke-miterlimit="10" fill="none"/><path d="M159.016 194.055l7.957 6.925" stroke-width="1.2" stroke="#000" stroke-miterlimit="10" fill="none"/><path d="M148.055 181.63h7v11h-7zm0 0" fill="#fff"/><use xlink:href="#a" x="148.055" y="190.292" fill="#00f"/><path d="M166.973 200.98l9.976-3.43" stroke-width="1.2" stroke="#000" stroke-miterlimit="10" fill="none"/><path d="M176.95 197.55l9.976-3.433" stroke-width="1.2" stroke="#00f" stroke-miterlimit="10" fill="none"/><path d="M167.355 195.598l7.98-2.743" stroke-width="1.2" stroke="#000" stroke-miterlimit="10" fill="none"/><path d="M175.336 192.855l7.98-2.746" stroke-width="1.2" stroke="#00f" stroke-miterlimit="10" fill="none"/><path d="M166.973 200.98l-4.036 20.71" stroke-width="1.2" stroke="#000" stroke-miterlimit="10" fill="none"/><path d="M183.926 188.617h7v11h-7zm0 0" fill="#fff"/><use xlink:href="#a" x="183.926" y="197.28" fill="#00f"/><path d="M139.168 152.57L129.19 156" stroke-width="1.2" stroke="#00f" stroke-miterlimit="10" fill="none"/><path d="M129.19 156l-9.975 3.43" stroke-width="1.2" stroke="#000" stroke-miterlimit="10" fill="none"/><path d="M132.168 147.07h14v11h-14zm0 0" fill="#fff"/><g fill="#00f"><use xlink:href="#a" x="132.168" y="155.733"/><use xlink:href="#b" x="139.146" y="155.733"/></g><path d="M119.215 159.43l-6.176 20.18M101.938 147.32l17.277 12.11M113.04 179.61l-21.1.36M91.94 179.97l-3.428-9.978" stroke-width="1.2" stroke="#000" stroke-miterlimit="10" fill="none"/><path d="M88.512 169.992l-3.434-9.98M85.078 160.012l8.43-6.344" stroke-width="1.2" stroke="#00f" stroke-miterlimit="10" fill="none"/><path d="M93.508 153.668l8.43-6.348" stroke-width="1.2" stroke="#000" stroke-miterlimit="10" fill="none"/><path d="M85.078 160.012l-10.086-3.086" stroke-width="1.2" stroke="#00f" stroke-miterlimit="10" fill="none"/><path d="M74.992 156.926l-10.09-3.09" stroke-width="1.2" stroke="#000" stroke-miterlimit="10" fill="none"/><path d="M82.078 154.512h7v11h-7zm0 0" fill="#fff"/><use xlink:href="#a" x="82.078" y="163.175" fill="#00f"/><path d="M64.902 153.836l-4.738-20.563M60.164 133.273l15.438-14.382M58.324 128.203l12.352-11.508M39.988 127.098l20.176 6.175M75.602 118.89l-4.74-20.562M70.863 98.328l-20.175-6.176M67.395 102.457l-16.14-4.94M50.688 92.152L35.25 106.535M35.25 106.535l4.738 20.563M40.563 107.477l3.79 16.45" stroke-width="1.2" stroke="#000" stroke-miterlimit="10" fill="none"/><path d="M183.297 140.137l10.508.925" stroke-width="1.2" stroke="#00f" stroke-miterlimit="10" fill="none"/><path d="M193.805 141.063l10.51.92" stroke-width="1.2" stroke="#000" stroke-miterlimit="10" fill="none"/><path d="M184.96 145.27l8.41.738" stroke-width="1.2" stroke="#00f" stroke-miterlimit="10" fill="none"/><path d="M193.37 146.008l8.407.738" stroke-width="1.2" stroke="#000" stroke-miterlimit="10" fill="none"/><path d="M180.297 134.637h7v11h-7zm0 0" fill="#fff"/><use xlink:href="#a" x="180.297" y="143.3" fill="#00f"/><path d="M204.316 141.984l13.848-15.918M218.164 126.066l20.71 4.036M221.184 121.598l16.57 3.226M211.305 106.113l6.86 19.953M238.875 130.102l13.852-15.922M252.727 114.18l-6.864-19.953M247.344 113.8l-5.49-15.964M245.863 94.227l-20.71-4.036M245.863 94.227l6.926-7.957" stroke-width="1.2" stroke="#000" stroke-miterlimit="10" fill="none"/><path d="M252.79 86.27l6.925-7.96" stroke-width="1.2" stroke="#3cc" stroke-miterlimit="10" fill="none"/><path d="M225.152 90.19l-13.847 15.923M227.512 95.043l-11.078 12.734" stroke-width="1.2" stroke="#000" stroke-miterlimit="10" fill="none"/><path d="M256.715 72.81h6v11h-6zm0 0" fill="#fff"/><use xlink:href="#c" x="256.715" y="81.472" fill="#3cc"/></g></svg>
